X: 801
T: Post-Oak Grove
B: jims roots
M:2/4
L:1/16
Q: 1/4=100
K:D
V:1 
"D"D3D D2D2| A3A A2A2 | "G"BABc dBAF | "A"EDEF E2E2 |
"D"D3D D2D2 | A3A A2A2 | "G"BABc dBAF | "A"E2D2 "D"D4 :|
|:"D" a3a a2f2 | "G"efgf edB2 | "Em"b3b b2a2 | "A"f2af e4 |
   "D"a3a a2f2 | "G"efgf edBA | BcdB "D"AFED |[1 "A"E2E2 E4 :|[2 "A"E2E2 "D"D4 |]
% abcbook-tune_id 6298c2796bb869a8dbf87b2c


% abcbook-boost 0
% abcbook-tablature 
% abcbook-transpose 
% abcbook-lastupdated 1654178426640
% abcbook-soundfonts 
% abcbook-repeats 1


